X:2352
T:Peter O' Tavy 
C:Traditional
O:Isle of Man
B:Kiaull Vannin 352
N:See KV140 
L:1/8
M:6/8 
Q:80 
K:G 
GGG G2G|A2D A3|AFD AFD|DEF G2D|GGG G2G|A2D A3|AFD AFD|G3 G3| 
g2d g2d|gfe d3|e2e dcB|dcB A3|g2d g2d|gfe d3|dcB AGF|G3 G3|| 

